X: 23356
T: Leitrim Fancy, The
R: jig
M: 6/8
K: Dmajor
|:GBG FAF|E2B BAB|GBG FAF|DFA AFD|
GBG FAF|E2B BAB|GAB dBG|ABG FED:|
|:G2B dBd|edB dBA|G2B dBG|ABG FED|
G2B dBd|edB def|gfe dBG|ABG FED:|

